svgs/sharp-light/traffic-cone.svg

<svg xmlns="http://www.w3.org/2000/svg" viewBox="0 0 512 512"><!--! Font Awesome Pro 6.6.0 by @fontawesome - https://fontawesome.com License - https://fontawesome.com/license (Commercial License) Copyright 2024 Fonticons, Inc. --><path d="M221.2 0L232 0l48 0 10.8 0 4 10.1L482.8 480l13.2 0 16 0 0 32-16 0L16 512 0 512l0-32 16 0 13.2 0 188-469.9 4-10.1zm176 352l-282.3 0L63.6 480l384.7 0L397.2 352zm-12.8-32L333.2 192l-154.3 0L127.6 320l256.7 0zM191.6 160l128.7 0L269.2 32l-26.3 0L191.6 160z"/></svg>

<svg xmlns="http://www.w3.org/2000/svg" viewBox="0 0 512 512"><!--! Font Awesome Pro 6.4.2 by @fontawesome - https://fontawesome.com License - https://fontawesome.com/license (Commercial License) Copyright 2023 Fonticons, Inc. --><path d="M221.2 0H232h48 10.8l4 10.1L482.8 480H496h16v32H496 16 0V480H16 29.2l188-469.9 4-10.1zm176 352H114.8L63.6 480H448.4L397.2 352zm-12.8-32L333.2 192H178.8L127.6 320H384.4zM191.6 160H320.4L269.2 32H242.8L191.6 160z"/></svg>
